Yosa-Max/mimetypes/scalable/application-postscript.svg

<?xml version="1.0" encoding="UTF-8"?>
<svg id="svg31" version="1.1" viewBox="0 0 64 64" xmlns="http://www.w3.org/2000/svg" xmlns:xlink="http://www.w3.org/1999/xlink">
 <defs id="defs35">
  <linearGradient id="linearGradient888" x1="9.3150644" x2="9.3150644" y1="-295.13004" y2="-280.55145" gradientTransform="matrix(3.7795275,0,0,3.7795275,-2.8073486e-6,1058.5196)" gradientUnits="userSpaceOnUse">
   <stop id="stop882" style="stop-color:#ee4e74" offset="0"/>
   <stop id="stop884" style="stop-color:#f57d99" offset="1"/>
  </linearGradient>
  <linearGradient id="linearGradient1455" x1="130.16949" x2="130.16949" y1="6.7796607" y2="47.728813" gradientTransform="matrix(1.2851141,0,0,1.2871462,-139.21534,-69.460852)" gradientUnits="userSpaceOnUse">
   <stop id="stop1493" style="stop-color:#a8a8a8" offset="0"/>
   <stop id="stop1495" style="stop-color:#d0d0d0" offset="1"/>
  </linearGradient>
 </defs>
 <rect id="rect1243" transform="scale(1,-1)" x="7.9999981" y="-62.000011" width="41.877155" height="54.889561" style="fill:url(#linearGradient1455);paint-order:stroke fill markers"/>
 <rect id="rect1466" transform="scale(1,-1)" x="14.122847" y="-56.889549" width="41.877155" height="54.889561" style="fill:url(#linearGradient888);paint-order:stroke fill markers"/>
 <g id="g23" transform="matrix(.0453411 0 0 .0453411 24.061379 18.444746)" style="fill:#ffffff;stroke-opacity:.8">
  <path id="path13" d="m121.305 30.327h242.604v60.651h30.327v-60.651c0-16.732-13.562-30.327-30.327-30.327h-242.604c-16.731 0-30.327 13.595-30.327 30.327v60.651h30.327z" style="fill:#ffffff"/>
  <path id="path15" d="m454.89 121.304h-424.562c-16.731 0-30.327 13.591-30.327 30.324v151.629c0 16.764 13.595 30.327 30.327 30.327h60.651v121.302c0 16.764 13.595 30.326 30.327 30.326h242.604c16.765 0 30.327-13.562 30.327-30.326v-121.302h60.653c16.759 0 30.322-13.563 30.322-30.327v-151.629c0-16.733-13.564-30.324-30.322-30.324zm-90.981 333.582h-242.604v-212.28h242.604zm60.653-242.604c-16.764 0-30.326-13.564-30.326-30.327 0-16.731 13.562-30.327 30.326-30.327 16.765 0 30.327 13.595 30.327 30.327 1e-3 16.762-13.562 30.327-30.327 30.327z" style="fill:#ffffff"/>
  <path id="path17" d="m151.629 272.92999h121.304v30.327h-121.304z" style="fill:#ffffff"/>
  <path id="path19" d="m151.629 333.58401h181.95799v30.321h-181.95799z" style="fill:#ffffff"/>
  <path id="path21" d="m151.629 394.237h181.95799v30.322h-181.95799z" style="fill:#ffffff"/>
 </g>
 <text id="text879" transform="scale(.99364346 1.0063972)" x="-4.8173752" y="33.610004" style="fill:#000000;font-family:sans-serif;font-size:49.582413px;letter-spacing:0px;line-height:1.25;stroke-width:.99999994;word-spacing:0px" xml:space="preserve"><tspan id="tspan877" x="-4.8173752" y="77.478821" style="stroke-width:.99999994"/></text>
</svg>

<?xml version="1.0" encoding="UTF-8" standalone="no"?>
<svg
   xmlns:dc="http://purl.org/dc/elements/1.1/"
   xmlns:cc="http://creativecommons.org/ns#"
   xmlns:rdf="http://www.w3.org/1999/02/22-rdf-syntax-ns#"
   xmlns:svg="http://www.w3.org/2000/svg"
   xmlns="http://www.w3.org/2000/svg"
   xmlns:xlink="http://www.w3.org/1999/xlink"
   xmlns:sodipodi="http://sodipodi.sourceforge.net/DTD/sodipodi-0.dtd"
   xmlns:inkscape="http://www.inkscape.org/namespaces/inkscape"
   height="64"
   viewBox="0 0 64 64"
   width="64"
   version="1.1"
   id="svg31"
   sodipodi:docname="application-postscript.svg"
   inkscape:version="0.92.2 2405546, 2018-03-11">
  <metadata
     id="metadata37">
    <rdf:RDF>
      <cc:Work
         rdf:about="">
        <dc:format>image/svg+xml</dc:format>
        <dc:type
           rdf:resource="http://purl.org/dc/dcmitype/StillImage" />
      </cc:Work>
    </rdf:RDF>
  </metadata>
  <defs
     id="defs35">
    <linearGradient
       id="linearGradient863">
      <stop
         style="stop-color:#a5a5a5;stop-opacity:1"
         offset="0"
         id="stop859" />
      <stop
         style="stop-color:#dbdbdb;stop-opacity:1"
         offset="1"
         id="stop861" />
    </linearGradient>
    <linearGradient
       id="linearGradient822">
      <stop
         style="stop-color:#0652ff;stop-opacity:1"
         offset="0"
         id="stop818" />
      <stop
         style="stop-color:#1b99ff;stop-opacity:1"
         offset="1"
         id="stop820" />
    </linearGradient>
    <linearGradient
       x1="411.66486"
       id="c-3"
       y1="532.612"
       y2="514.79797"
       x2="406.56763"
       gradientUnits="userSpaceOnUse"
       gradientTransform="matrix(2.4445151,0,0,2.4445151,-974.7584,-1256.4318)">
      <stop
         style="stop-color:#2e89fc;stop-opacity:1"
         stop-color="#7cbaf8"
         id="stop12" />
      <stop
         style="stop-color:#42f2ff;stop-opacity:1"
         offset="1"
         stop-color="#f4fcff"
         id="stop14" />
    </linearGradient>
    <linearGradient
       xlink:href="#linearGradient822"
       id="linearGradient824"
       x1="26.10714"
       y1="45.762711"
       x2="26.10714"
       y2="2.4374466"
       gradientUnits="userSpaceOnUse"
       gradientTransform="matrix(0.3097139,0,0,0.3097139,393.13824,522.33096)" />
    <linearGradient
       xlink:href="#linearGradient863"
       id="linearGradient865"
       x1="400.55444"
       y1="517.83185"
       x2="400.55444"
       y2="545.22168"
       gradientUnits="userSpaceOnUse" />
    <linearGradient
       gradientUnits="userSpaceOnUse"
       y2="-280.55145"
       x2="9.3150644"
       y1="-295.13004"
       x1="9.3150644"
       id="linearGradient888"
       xlink:href="#linearGradient886"
       inkscape:collect="always"
       gradientTransform="matrix(3.7795275,0,0,3.7795275,-2.8073486e-6,1058.5196)" />
    <linearGradient
       id="linearGradient886"
       inkscape:collect="always">
      <stop
         id="stop882"
         offset="0"
         style="stop-color:#ee4e74;stop-opacity:1" />
      <stop
         id="stop884"
         offset="1"
         style="stop-color:#f57d99;stop-opacity:1" />
    </linearGradient>
    <linearGradient
       inkscape:collect="always"
       xlink:href="#linearGradient1497"
       id="linearGradient1455"
       x1="130.16949"
       y1="6.7796607"
       x2="130.16949"
       y2="47.728813"
       gradientUnits="userSpaceOnUse"
       gradientTransform="matrix(1.2851141,0,0,1.2871462,-139.21534,-69.460852)" />
    <linearGradient
       id="linearGradient1497"
       inkscape:collect="always">
      <stop
         id="stop1493"
         offset="0"
         style="stop-color:#a8a8a8;stop-opacity:1" />
      <stop
         id="stop1495"
         offset="1"
         style="stop-color:#d0d0d0;stop-opacity:1" />
    </linearGradient>
  </defs>
  <sodipodi:namedview
     pagecolor="#ffffff"
     bordercolor="#666666"
     borderopacity="1"
     objecttolerance="10"
     gridtolerance="10"
     guidetolerance="10"
     inkscape:pageopacity="0"
     inkscape:pageshadow="2"
     inkscape:window-width="1366"
     inkscape:window-height="701"
     id="namedview33"
     showgrid="false"
     inkscape:zoom="7.640625"
     inkscape:cx="32"
     inkscape:cy="32"
     inkscape:window-x="0"
     inkscape:window-y="0"
     inkscape:window-maximized="1"
     inkscape:current-layer="svg31" />
  <linearGradient
     id="a"
     gradientTransform="matrix(1.0749904 0 0 1.0292896 113.08072 -.192062)"
     gradientUnits="userSpaceOnUse"
     x1="-74.929466"
     x2="-75.259552"
     y1="52.199436"
     y2="2.356489">
    <stop
       offset="0"
       stop-color="#ff4a61"
       id="stop2" />
    <stop
       offset="1"
       stop-color="#ff6b91"
       id="stop4" />
  </linearGradient>
  <rect
     transform="scale(1,-1)"
     y="-62.000011"
     x="7.9999981"
     height="54.889561"
     width="41.877155"
     id="rect1243"
     style="opacity:1;vector-effect:none;fill:url(#linearGradient1455);fill-opacity:1;stroke:none;stroke-width:3.00000024;stroke-linecap:round;stroke-linejoin:miter;stroke-miterlimit:4;stroke-dasharray:none;stroke-dashoffset:0;stroke-opacity:1;paint-order:stroke fill markers" />
  <rect
     style="opacity:1;vector-effect:none;fill:url(#linearGradient888);fill-opacity:1;stroke:none;stroke-width:3.00000024;stroke-linecap:round;stroke-linejoin:miter;stroke-miterlimit:4;stroke-dasharray:none;stroke-dashoffset:0;stroke-opacity:1;paint-order:stroke fill markers"
     id="rect1466"
     width="41.877155"
     height="54.889561"
     x="14.122847"
     y="-56.889549"
     transform="scale(1,-1)" />
  <g
     transform="matrix(0.0453411,0,0,0.0453411,24.061379,18.444746)"
     id="g23"
     style="fill:#ffffff;stroke-opacity:0.8">
    <path
       d="m 121.305,30.327 h 242.604 v 60.651 h 30.327 V 30.327 C 394.236,13.595 380.674,0 363.909,0 H 121.305 C 104.574,0 90.978,13.595 90.978,30.327 v 60.651 h 30.327 z"
       id="path13"
       inkscape:connector-curvature="0"
       style="fill:#ffffff" />
    <path
       d="M 454.89,121.304 H 30.328 c -16.731,0 -30.327,13.591 -30.327,30.324 v 151.629 c 0,16.764 13.595,30.327 30.327,30.327 h 60.651 v 121.302 c 0,16.764 13.595,30.326 30.327,30.326 H 363.91 c 16.765,0 30.327,-13.562 30.327,-30.326 V 333.584 h 60.653 c 16.759,0 30.322,-13.563 30.322,-30.327 V 151.628 c 0,-16.733 -13.564,-30.324 -30.322,-30.324 z M 363.909,454.886 H 121.305 v -212.28 h 242.604 z m 60.653,-242.604 c -16.764,0 -30.326,-13.564 -30.326,-30.327 0,-16.731 13.562,-30.327 30.326,-30.327 16.765,0 30.327,13.595 30.327,30.327 10e-4,16.762 -13.562,30.327 -30.327,30.327 z"
       id="path15"
       inkscape:connector-curvature="0"
       style="fill:#ffffff" />
    <path
       d="m 151.629,272.92999 h 121.304 v 30.327 H 151.629 Z"
       id="path17"
       inkscape:connector-curvature="0"
       style="fill:#ffffff" />
    <path
       d="m 151.629,333.58401 h 181.95799 v 30.321 H 151.629 Z"
       id="path19"
       inkscape:connector-curvature="0"
       style="fill:#ffffff" />
    <path
       d="m 151.629,394.237 h 181.95799 v 30.322 H 151.629 Z"
       id="path21"
       inkscape:connector-curvature="0"
       style="fill:#ffffff" />
  </g>
  <text
     xml:space="preserve"
     style="font-style:normal;font-weight:normal;font-size:49.58241272px;line-height:1.25;font-family:sans-serif;letter-spacing:0px;word-spacing:0px;fill:#000000;fill-opacity:1;stroke:none;stroke-width:0.99999994"
     x="-4.8173752"
     y="33.610004"
     id="text879"
     transform="scale(0.99364346,1.0063972)"><tspan
       style="stroke-width:0.99999994"
       sodipodi:role="line"
       id="tspan877"
       x="-4.8173752"
       y="77.478821" /></text>
</svg>
